images/logo-telegram.svg

<svg fill="none" height="24" viewBox="0 0 24 24" width="24" xmlns="http://www.w3.org/2000/svg" xmlns:xlink="http://www.w3.org/1999/xlink"><linearGradient id="a" gradientUnits="userSpaceOnUse" x1="1200" x2="1200" y1="0" y2="2400"><stop offset="0" stop-color="#2aabee"/><stop offset="1" stop-color="#229ed9"/></linearGradient><clipPath id="b"><path d="m0 0h24v24h-24z"/></clipPath><g clip-path="url(#b)"><path d="m12 0c-3.18187 0-6.23625 1.26506-8.48438 3.51469-2.25044 2.25052-3.51499662 5.30265-3.51562 8.48531 0 3.1813 1.26562 6.2357 3.51562 8.4853 2.24813 2.2496 5.30251 3.5147 8.48438 3.5147 3.1819 0 6.2363-1.2651 8.4844-3.5147 2.25-2.2496 3.5156-5.304 3.5156-8.4853 0-3.18131-1.2656-6.23569-3.5156-8.48531-2.2481-2.24963-5.3025-3.51469-8.4844-3.51469z" fill="url(#a)"/><path d="m5.43184 11.8733c3.49875-1.524 5.83126-2.52885 6.99746-3.01429 3.3338-1.38619 4.0257-1.62694 4.4775-1.63509.0994-.0016.3207.02297.465.13968.12.09844.1538.23157.1707.32504.015.09337.0356.30618.0187.47231-.18 1.89745-.9619 6.50215-1.3594 8.62745-.1668.8992-.4987 1.2007-.8193 1.2302-.6975.0641-1.2263-.4605-1.9013-.9028-1.0556-.6925-1.6519-1.1234-2.6775-1.7989-1.18498-.7808-.4162-1.21.2588-1.9112.1762-.1836 3.2475-2.9764 3.3056-3.2297.0075-.0317.015-.1498-.0563-.21205-.0693-.06244-.1725-.04106-.2475-.02419-.1068.024-1.7925 1.13924-5.06246 3.34554-.47812.3289-.91125.4892-1.30125.4808-.4275-.0092-1.2525-.2423-1.86562-.4414-.75-.2443-1.34813-.3735-1.29563-.7884.02625-.216.32438-.4371.8925-.663z" fill="#fff"/></g></svg>

<svg width="24" height="24" viewBox="0 0 24 24" fill="none" xmlns="http://www.w3.org/2000/svg">
<g clip-path="url(#clip0_7238_69850)">
<path d="M12 0C8.81813 0 5.76375 1.26506 3.51562 3.51469C1.26518 5.76521 0.000623381 8.81734 0 12C0 15.1813 1.26562 18.2357 3.51562 20.4853C5.76375 22.7349 8.81813 24 12 24C15.1819 24 18.2363 22.7349 20.4844 20.4853C22.7344 18.2357 24 15.1813 24 12C24 8.81869 22.7344 5.76431 20.4844 3.51469C18.2363 1.26506 15.1819 0 12 0Z" fill="url(#paint0_linear_7238_69850)"/>
<path d="M5.43184 11.8733C8.93059 10.3493 11.2631 9.34445 12.4293 8.85901C15.7631 7.47282 16.455 7.23207 16.9068 7.22392C17.0062 7.22232 17.2275 7.24689 17.3718 7.3636C17.4918 7.46204 17.5256 7.59517 17.5425 7.68864C17.5575 7.78201 17.5781 7.99482 17.5612 8.16095C17.3812 10.0584 16.5993 14.6631 16.2018 16.7884C16.035 17.6876 15.7031 17.9891 15.3825 18.0186C14.685 18.0827 14.1562 17.5581 13.4812 17.1158C12.4256 16.4233 11.8293 15.9924 10.8037 15.3169C9.61872 14.5361 10.3875 14.1069 11.0625 13.4057C11.2387 13.2221 14.31 10.4293 14.3681 10.176C14.3756 10.1443 14.3831 10.0262 14.3118 9.96395C14.2425 9.90151 14.1393 9.92289 14.0643 9.93976C13.9575 9.96376 12.2718 11.079 9.00184 13.2853C8.52372 13.6142 8.09059 13.7745 7.70059 13.7661C7.27309 13.7569 6.44809 13.5238 5.83497 13.3247C5.08497 13.0804 4.48684 12.9512 4.53934 12.5363C4.56559 12.3203 4.86372 12.0992 5.43184 11.8733Z" fill="white"/>
</g>
<defs>
<linearGradient id="paint0_linear_7238_69850" x1="1200" y1="0" x2="1200" y2="2400" gradientUnits="userSpaceOnUse">
<stop stop-color="#2AABEE"/>
<stop offset="1" stop-color="#229ED9"/>
</linearGradient>
<clipPath id="clip0_7238_69850">
<rect width="24" height="24" fill="white"/>
</clipPath>
</defs>
</svg>
